!!!!SEGMENT: T738_Mes-w18p29m63-70.krn
!!!COM: Messiaen, Olivier (Eugène Prosper Charles)
!!!OTL: III: Amen de l'agonie de Jésus (Amen of the Agony of Jesus)
!!!AGN: Instrumental
!!!AGN-sub: Keyboard
!!!CNT: French
!!!ODT: 1943
!!!OPR: Visions de l'Amen (Visions of the Amen) for Two Pianos
!!!filename: T738_Mes-w18p29m63-70.krn
**kern	**kern	**dynam	**kern	**dynam	**kern	**dynam
*grp:A	*grp:A	*	*grp:B	*	*grp:A	*
*part2	*part2	*	*part1	*	*part1	*
*staff4	*staff3	*	*staff2	*	*staff1	*
*I"Piano 2	*I"Piano 2	*	*I"Piano 1	*	*I"Piano 1	*
*I'Pno. 2	*I'Pno. 2	*	*I'Pno. 1	*	*I'Pno. 1	*
*clefF4	*clefG2	*	*clefG2	*	*clefG2	*
*k[]	*k[]	*	*k[]	*	*k[]	*
*C:	*C:	*	*C:	*	*C:	*
*M2/4	*M2/4	*	*M2/4	*	*M2/4	*
=63	=63	=63	=63	=63	=63	=63
*	*	*	*	*	*8va	*
!	!LO:TX:t= Un peu plus lent ([eighth]=63)	!	!	!	!LO:TX:t= Un peu plus lent ([eighth]=63)	!
!	!	!	!	!	!LO:TX:b:t=(sans sourd.)	!LO:DY:b:t=%s clair
!LO:TX:b:t=☆ Percuté, sonorité de gong; flageller les touches (comme un pizzicato) en mettant en même temps la pédale forte.	!	!	!	!	!	!
8r	8r	.	2r	.	16ddd#XLL 16aaa 16eeee	p
.	.	.	.	.	16dddn 16ggg#X 16dddd#X	.
!	!	!LO:DY:t=%s expressif	!	!	!	!
4B-X 4cn 4en	(8anL	f	.	.	16aa 16ddd#X 16ggg#X	.
.	.	.	.	.	16gg#XJJ 16dddn 16gggn	.
.	8dd-X	.	.	.	16ccc#XLL 16eee 16aaa	.
.	.	.	.	.	16fffnJ 16bbb-X 16ddddn	.
[8B-X [8d-X [8f#X	8ccnJ	.	.	.	(8ddd#X^J 8aaa 8eeee	.
=64	=64	=64	=64	=64	=64	=64
16B-XKL] 16d-X] 16f#X]	16ee-X^KL	.	8.r	.	8dddnL 8ggg#X 8dddd#X)	.
[8.B-XJ [8.e-X [8.g	[<8.aJ	.	.	.	.	.
.	.	.	.	.	16ccc#XL 16gggn 16ddddn	.
*	*	*	*clefF4	*	*	*
*	*	*	*8ba	*above	*	*
!	!	!	!LO:TX:b:t=(percuté, en laissant résonner)	!	!	!
!	!	!	!LO:TX:t=┌	!	!	!
!	!	!	!LO:TX:b:t=☆	!	!	!
.	.	.	[16CCC#X [16GGG#X [16DDn	p	16dddnJJ 16ggg#X 16dddd#X	.
4B-_ 4e-_ 4g_	4a_)	.	8.CCC#L] 8.GGG#] 8.DD]	.	(8aa^L 8ddd#X 8ggg#X	.
.	.	.	.	.	16gg#XL 16dddn 16gggn)	.
.	.	.	[16EEEnJk [16BBBn [16FFn	.	[16ccc#X~JJ [16eee [16aaa	.
=65	=65	=65	=65	=65	=65	=65
16B-XKL] 16e-X] 16g]	16aKL]	.	8.EEEL] 8.BBB] 8.FF]	.	16ccc#XLL] 16eee] 16aaa]	.
[8.GJ [8.An [8.d-X	(8f#X	.	.	.	16fffn 16bbb-X 16dddd	.
.	.	.	.	.	16ddd#X 16aaa 16eeee	.
!	!	!	!	!LO:DY:t=poco %s 	!	!
.	[16b-X~>Jk	.	[16AAAA^>Jk	sf	16ccc#XJJ 16gggn 16ddddn	.
16GKL] 16A] 16d-]	16b-KL]/	.	8.AAAAL]	.	8ddd#XL 8aaa 8eeee	.
8.GJ 8.B-X 8.e-X	8a	.	.	.	.	.
.	.	.	.	.	[8dddnJ [8ggg#X [8dddd#X	.
.	16ccJk	.	[16CCC#XJk [16GGG#X [16DDn	.	.	.
=66	=66	=66	=66	=66	=66	=66
2G 2c 2en	8f#XL)	.	16CCC#XKL] 16GGG#X] 16DDn]	.	8dddnXL] 8ggg#X] 8dddd#X]	.
.	.	.	8.EEEJ 8.BBB 8.FFn	.	.	.
.	(>8cc~>J	p	.	.	8ddd~J 8ggg# 8dddd#	.
!	!	!	!	!LO:DY:t= poco %s	!	!
.	4f#~>)	.	8AAAA^>L	sf	4gg#X~ 4ddd#X 4aaa	.
.	.	.	8CCC#XJ 8GGG#X 8DD	.	.	.
!!linebreak:original
=67	=67	=67	=67	=67	=67	=67
4En 4F#X 4B-X	(8e-XL	f	8EEEL 8BBB 8FF	.	16ddd#XLL 16aaa 16eeee	.
.	.	.	.	.	16dddn 16ggg#X 16dddd#X	.
!	!	!	!	!LO:DY:t=poco %s	!	!
.	8gJ	.	8AAAA^>J	sf	16aa 16ddd#X 16ggg#X	.
.	.	.	.	.	16gg#XJJ 16dddn 16gggn	.
[4En [4G [4c	8f#XL	.	8.CCC#XL 8.GGG#X 8.DD	.	16ccc#XLL 16eee 16aaa	.
.	.	.	.	.	16fffnJ 16bbb-X 16ddddn	.
.	[8a^>J	.	.	.	(8ddd#X^J 8aaa 8eeee	.
.	.	.	[16EEEJk [16BBB [16FF	.	.	.
=68	=68	=68	=68	=68	=68	=68
16EKL] 16G] 16c]	16aKL]	.	8EEEL] 8BBB] 8FF]	.	8dddnL 8ggg#X 8dddd#X)	.
[8.EnJ [8.An [8.d-X	8e-X)	.	.	.	.	.
!	!	!	!	!LO:DY:t=poco %s	!	!
.	.	.	[8AAAA^>J	sf	16ccc#XL 16gggn 16ddddn	.
.	((>[16a^>Jk	.	.	.	16dddnJJ 16ggg#X 16dddd#X	.
4E] 4A] 4d-]	16aKL]	.	16AAAALL]	.	(8aa^L 8ddd#X 8ggg#X	.
.	8e-X)	.	16CCC#XJ 16GGG#X 16DD	.	.	.
.	.	.	8EEEJ 8BBB 8FF	.	16gg#XL 16dddn 16gggn)	.
.	16f#XJk	.	.	.	[16ccc#X~JJ [16eee [16aaa	.
=69	=69	=69	=69	=69	=69	=69
!	!	!	!	!LO:DY:t=poco %s	!	!
[2D-X [2F#X [2B-X	8cL	.	8.AAAA^>L	.sf	16ccc#XLL] 16eee] 16aaa]	.
.	.	.	.	.	16fffn 16bbb-X 16dddd	.
.	(>8f#X~>J	.	.	.	16ddd#X 16aaa 16eeee	.
.	.	.	[16CCC#XJk [16GGG#X [16DD	.	16ccc#XJJ 16gggn 16ddddn	.
.	8cL)	.	8.CCC#L] 8.GGG#] 8.DD]	.	8ddd#XL 8aaa 8eeee	.
.	(>16e-X^L	.	.	.	[8dddnJ [8ggg#X [8dddd#X^	.
.	[16cJJ	.	[16EEEJk [16BBB [16FF	.	.	.
=70	=70	=70	=70	=70	=70	=70
16D-XKL] 16F#X] 16B-X]	16cKL]))	.	4EEE_ 4BBB_ 4FF_	.	8dddnXL] 8ggg#X] 8dddd#X]	.
(8.D-X^J 8.En 8.An	(8.e-X^J	.	.	.	.	.
.	.	.	.	.	8ddd~J 8ggg# 8dddd#	.
!	!	!	!LO:TX:t=┐	!	!	!
[4BB-X~ [4E-X [4Gn)	[4c~)	.	8.EEEL] 8.BBB] 8.FF]	.	4gg#X~ 4ddd#X 4aaa	.
!	!	!	!LO:TX:t=┌	!	!	!
.	.	.	[16CCC#XJk [16GGG#X [16DD	.	.	.
*	*	*	*X8ba	*	*X8va	*
=	=	=	=	=	=	=
*-	*-	*-	*-	*-	*-	*-
!!!system-decoration: {(s1,s2)}{(s3,s4)}
!!!RDF**kern: > = above
!!!RDF**kern: < = below
!!!EED: Jason Lee
!!!EEV: 2021/09/24
!!!EED2: Daniel Wright
!!!Suter_Work_ID: Mes-18
!!!Suter_Example_Number: 738
!!!Suter_Example_ID: Mes-18/29/63-70
!!!Premiere_Location: Paris,France
!!!Other_Tsigs: none
!!!Full_Unit_Duration: 7:41
!!!First_Publication_Year: 1950
!!!First_Public_Performance_Year: 1943
!!!Example_Total_Measures: 8
!!!Example_Timestamp_Duration: 38
!!!Example_Start_Tsig_Type: simple duple
!!!Example_Start_Tsig_Mean_Beat_Rate: 32
!!!Example_Start_Tsig_Beat_Rate: 32
!!!Example_Start_Tsig_Beat: quarter
!!!Example_Start_Tsig: 2/4
!!!Example_Start_Timestamp: 4:12
!!!Example_Start_Tempo_Expression: Un peu plus lent
!!!Example_Start_Notated_Beat_Rate: 63
!!!Example_Start_Notated_Beat: eighth
!!!Example_Start_Measure: 63
!!!Example_Metadata_Validated: Y
!!!Example_End_Timestamp: 4:50
!!!Example_End_Measure: 70
!!!Example_Dataset: T
!!!Editorial_Comments:
!!!Death_Place: Paris,France
!!!Death_Date: 27-Apr-1992
!!!Changing_Tsig: no
!!!Birth_Place: Avignon,France
!!!Birth_Date: 10-Dec-1908
!!!Audio_Example_Quarter_Note_Tempo:
!!!Audio_Example_Duration:
!!!EEV2: 2022/03/10
